icons/fill-new-other-cover-flow-banner.svg

<svg xmlns="http://www.w3.org/2000/svg" width="32px" height="32px" viewBox="0 0 32 32" version="1.1">
    <title>fill-new-other-cover-flow-banner</title>
    <g id="fill-new-other-cover-flow-banner" stroke-width="1" fill-rule="evenodd">
        <path d="M9,6 L23,6 C23.5522847,6 24,6.44771525 24,7 L24,25 C24,25.5522847 23.5522847,26 23,26 L9,26 C8.44771525,26 8,25.5522847 8,25 L8,7 C8,6.44771525 8.44771525,6 9,6 Z M26,7 L29.5527864,5.2236068 C30.0467649,4.97661755 30.6474379,5.1768419 30.8944272,5.67082039 C30.9638549,5.80967583 31,5.96278889 31,6.11803399 L31,25.881966 C31,26.4342508 30.5522847,26.881966 30,26.881966 C29.8447549,26.881966 29.6916418,26.8458209 29.5527864,26.7763932 L26,25 L26,7 Z M6,7 L2.4472136,5.2236068 C1.9532351,4.97661755 1.35256206,5.1768419 1.10557281,5.67082039 C1.03614509,5.80967583 1,5.96278889 1,6.11803399 L1,25.881966 C1,26.4342508 1.44771525,26.881966 2,26.881966 C2.1552451,26.881966 2.30835816,26.8458209 2.4472136,26.7763932 L6,25 L6,7 Z" id="&#24418;&#29366;" />
    </g>
</svg>

<svg xmlns="http://www.w3.org/2000/svg" viewBox="0 0 32 32"><path fill="currentColor" d="M9 6h14a1 1 0 0 1 1 1v18a1 1 0 0 1-1 1H9a1 1 0 0 1-1-1V7a1 1 0 0 1 1-1m17 1 3.553-1.776A1 1 0 0 1 31 6.118v19.764a1 1 0 0 1-1.447.894L26 25zM6 7 2.447 5.224A1 1 0 0 0 1 6.118v19.764a1 1 0 0 0 1.447.894L6 25z"/></svg>
